widgets/TimeSlider/setting/css/images/timesetting.svg

<?xml version="1.0" encoding="UTF-8"?>
<svg width="12px" height="12px" viewBox="0 0 12 12" version="1.1" xmlns="http://www.w3.org/2000/svg" xmlns:xlink="http://www.w3.org/1999/xlink">
    <!-- Generator: Sketch 49.3 (51167) - http://www.bohemiancoding.com/sketch -->
    <title>settings copy 3</title>
    <desc>Created with Sketch.</desc>
    <defs></defs>
    <g id="Page-1" stroke="none" stroke-width="1" fill="none" fill-rule="evenodd">
        <g id="Default" transform="translate(-439.000000, -768.000000)" fill="#000000">
            <g id="Feed/Meters" transform="translate(250.000000, 761.000000)">
                <g id="settings-copy-3" transform="translate(189.000000, 7.000000)">
                    <path d="M10.4907752,6.63316583 C10.4907752,6.45226131 10.5519843,6.27135678 10.5519843,6.03015075 C10.5519843,5.78894472 10.5519843,5.6080402 10.4907752,5.42713568 L11.7761671,4.40201005 C11.8985854,4.28140704 11.8985854,4.16080402 11.8373762,4.04020101 L10.6131935,1.92964824 C10.5519843,1.86934673 10.4295661,1.80904523 10.2459387,1.86934673 L8.71571021,2.47236181 C8.40966452,2.23115578 8.0424097,2.05025126 7.67515487,1.86934673 L7.43031832,0.301507538 C7.49152746,0.120603015 7.30790004,0 7.18548177,0 L4.73711625,0 C4.61469798,0 4.43107056,0.120603015 4.43107056,0.24120603 L4.18623401,1.86934673 C3.81897919,1.98994975 3.5129335,2.23115578 3.14567867,2.47236181 L1.67665936,1.86934673 C1.49303195,1.80904523 1.37061367,1.86934673 1.2481954,1.98994975 L0.0240126414,4.10050251 C-0.0371964965,4.16080402 0.0240126414,4.34170854 0.146430917,4.46231156 L1.43182281,5.42713568 C1.43182281,5.6080402 1.37061367,5.78894472 1.37061367,6.03015075 C1.37061367,6.27135678 1.37061367,6.45226131 1.43182281,6.63316583 L0.146430917,7.65829146 C0.0240126414,7.77889447 0.0240126414,7.89949749 0.0852217792,8.0201005 L1.30940454,10.1306533 C1.37061367,10.1909548 1.49303195,10.2512563 1.67665936,10.1909548 L3.20688781,9.5879397 C3.5129335,9.82914573 3.88018832,10.0100503 4.24744315,10.1909548 L4.4922797,11.758794 C4.4922797,11.879397 4.61469798,12 4.79832539,12 L7.2466909,12 C7.36910918,12 7.55273659,11.879397 7.55273659,11.758794 L7.79757315,10.1909548 C8.16482797,10.0100503 8.5320828,9.82914573 8.83812849,9.5879397 L10.3683569,10.1909548 C10.4907752,10.2512563 10.6744026,10.1909548 10.7356118,10.0703518 L11.9597945,7.95979899 C12.0210037,7.83919598 12.0210037,7.65829146 11.8985854,7.59798995 L10.4907752,6.63316583 L10.4907752,6.63316583 Z M5.96129901,8.14070352 C4.79832539,8.14070352 3.81897919,7.1758794 3.81897919,6.03015075 C3.81897919,4.88442211 4.79832539,3.91959799 5.96129901,3.91959799 C7.12427263,3.91959799 8.10361883,4.88442211 8.10361883,6.03015075 C8.10361883,7.1758794 7.12427263,8.14070352 5.96129901,8.14070352 L5.96129901,8.14070352 Z" id="Shape"></path>
                </g>
            </g>
        </g>
    </g>
</svg>

<svg width="12" height="12" xmlns="http://www.w3.org/2000/svg"><path d="M10.49 6.633c0-.18.062-.362.062-.603s0-.422-.061-.603l1.285-1.025c.123-.12.123-.241.061-.362l-1.224-2.11c-.061-.06-.183-.121-.367-.06l-1.53.602c-.306-.24-.674-.422-1.04-.603L7.43.302C7.492.12 7.308 0 7.185 0H4.737c-.122 0-.306.12-.306.241L4.186 1.87c-.367.12-.673.362-1.04.603l-1.47-.603c-.183-.06-.305 0-.428.12L.024 4.102c-.061.06 0 .24.122.361l1.286.965c0 .181-.061.362-.061.603s0 .422.06.603L.147 7.658c-.122.12-.122.241-.06.362l1.223 2.11c.062.061.184.121.368.061l1.53-.603c.306.241.673.422 1.04.603l.245 1.568c0 .12.123.241.306.241h2.449c.122 0 .306-.12.306-.241l.245-1.568c.367-.18.734-.362 1.04-.603l1.53.603c.123.06.306 0 .368-.12L11.96 7.96c.061-.12.061-.302-.061-.362l-1.408-.965zM5.962 8.141c-1.163 0-2.142-.965-2.142-2.11 0-1.147.98-2.111 2.142-2.111 1.163 0 2.143.964 2.143 2.11s-.98 2.11-2.143 2.11z" fill-rule="evenodd"/></svg>
